_project/icons/icon.svg

<svg  width="30" height="30" xmlns="http://www.w3.org/2000/svg" shape-rendering="crispEdges">
	<g transform="translate(0,0) scale(1)"> <!-- This is for exporting in other sizes -->
		<rect fill="#ee0" x="2" y="2" width="26" height="26" />
		<path fill="#eee" d="M2 2v-1h26v1zM28 2h1v25h-1zM28 27h-1v1h1zM27 28v1h-24v-1zM3 28v-1h-1v1zM2 27h-1v-25h1z" />
		<path fill="#e80" d="M20 2v1h2v1h1V3h4V2zm7 7h1v1h-1zm-1 7h1v2h-1zm-1 3h1v1h-1zm-1 2h1v2h-1zm-1 3h1v1h-1zm-1 4v-2h1v1h-2v1z" />
		<path fill="#22a" d="M2 3h1V2h17v1h2v1h2V3h4v6h-1v7h-1v3h-1v2h-1v3h-1v2h-1v1h-1v1H3v-1H2z"/>
		<path fill="#24c" d="M2 17H3v1H4v1H3v2H2ZM2 7H3V5H4V6H2ZM4 8H5V7H4ZM8 3V2H7V3Zm2 3H9V5h1ZM8 10H9V8h1V9H8Zm4-1h2v1H13V8H12Zm2 2h1v1H14Zm1 2h1v1H15Zm1 2h1v2h1V16H16Zm3 2h1V15h1v1H19Zm2-3h1V13H21Zm2-2H22V11h1ZM18 4H17V3h1Zm1 0h1V6h2V9h1V7H21V5H19ZM16 3H15V2h1Zm8 1h1V3H24Zm3 0h1V3H27Zm0 5h1V8H27Z" />
		<path fill="#44e" d="M5 18v-1h2v-6h1V9h1V8h4v1h1v2h1v2h1v2h1v1h1v1h1v-1h1v-1h1v-2h1v-2h1V9h-1V7h-1V6h-1V5h-1V4h-2V3h-2V2H8v2h1v1h1v2H8v1H7v1H5V8H4v10z" />
		<path fill="#66e" d="M4 14v-3h2v-1H5v2h1v1H5v1zm9-6v1h1v1h1v2h1v2h1v1h1v1h1v-4h-1V9h-1V7h-1V6h-1V5h-3v1h-1v1h-1v1zm-6 3h1v1H7zm0 5h1v1H7z" />
		<path fill="#ea8" d="M5 4v3h1v1h2V7h1V6H8V5H7V4zm13 17v1h1v1h2v1h1v2h-1v1h-2v1H9v-1H7v-1H5v-1H4v-1H3v-5h1v-1h1v-1h3v1h1v1H8v1h1v1h2v1h5v-1z"/>
		<path fill="#a64" d="M5 7h1v2h1V8H5zm5 0V6H8V4H7v1h2v2zM9 21H7v2h2v1H8v-4h1zm-4-4h2v1H4v1h1zm-1 3H3v3h1zm0 4h1v2h1v-1H4zm3 2h1v1H7m2 0h2v1H9zm9-4h3v1h1v2h-1v1h-4v1h2v-2h1v-2h-1v-2h-1z" />
		<path fill="#800" d="M6 20h2v1H7v1H6zm-3-1h1v1H3zm0 4h1v1H3zm1 2h1v2h4v1H7v-2H4zm15 2h3v-3h-1v-1h2v-1h1v2h-1v2h-2v2h-2zM5 3h2v1H5z" />
		<path fill="#000" d="M3 28v-1h1v-1h1v1h2v1z" />
		<path fill="#eee" d="M5 11h1v1H5zm4 8v-1H8v-2H7v-4h1v-2h1V9h3v1h1v1h1v2h1v2h1v2h1v1h3v-1h1v-2h1v-2h1v-1h2v7h-1v3h-3v-1h-5v1h-5v-1H9v-1H8v-1zm-4-1h3v1H5zm-1 1h1v1H4z" />
		<path fill="#000" d="M10 14v3h1v2h1v-1h1v-5h-2v-1h1v3h-1v-1zm9 9v-1h-1v-1h1v-3h1v1h1v1h-1v1h1v1h3v-1h-1v2zm2-7h1v-1h-1z" />
		<path fill="#aaa" d="M2 2v1h1V2zM1 27h1v2h1v-1H1zm26 2h1v-2h1v1h-2zm1-27h-1v1h1zM7 12h1v-1h1v-1h1V9h1v1h1v1h2v2h1v2h1v2h1v2h1v-1h-2v-2h-1v-2h-1v-2h-1v-2H8v3H7zm5 0h1v1h-1zm6 8h1v1h-1zm2 1h1v-2h1v-5h1v-1h1v1h1v3h-1v2h-1v1h-3z" />
		<path fill="#888" d="M22 13h1v1h-1zm2 0h1v1h-1zm-4 4h1v1h-1zm4 0h1v1h-1zm-14 1h1v1h-1zm8 0h1v1h-1zm3 0h1v1h-1zm2 1h1v1h-1zm-1 1h1v1h-1zM9 9h1v1H9zm2 0h1v1h-1zm12 3h1v1h-1z" />
		<path fill="#444" d="M24 12h1v1h-1zm-14 1h1v1h-1zm11 3h1v2h-1zm-11 1h1v1h-1zm14 1h1v1h-1zm-4 0h1v1h-1zm3 2h1v1h-1zm-2 1h2v1h-2z" />
	</g>
</svg>

<svg width="30" height="30" xmlns="http://www.w3.org/2000/svg" shape-rendering="crispEdges">
	<rect fill="#ee0" x="2" y="2" width="26" height="26" />
	<path fill="#eee" d="M2 2V1h26v1zm26 0h1v25h-1zm0 25h-1v1h1zm-1 1v1H3v-1zM3 28v-1H2v1zm-1-1H1V2h1z" />
	<path fill="#e80" d="M20 2v1h2v1h1V3h4V2zm7 7h1v1h-1zm-1 7h1v2h-1zm-1 3h1v1h-1zm-1 2h1v2h-1zm-1 3h1v1h-1zm-1 4v-2h1v1h-2v1z" />
	<path fill="#22a" d="M2 3h1V2h17v1h2v1h2V3h4v6h-1v7h-1v3h-1v2h-1v3h-1v2h-1v1h-1v1H3v-1H2z"/>
	<path fill="#24c" d="M2 17H3v1H4v1H3v2H2ZM2 7H3V5H4V6H2ZM4 8H5V7H4ZM8 3V2H7V3Zm2 3H9V5h1ZM8 10H9V8h1V9H8Zm4-1h2v1H13V8H12Zm2 2h1v1H14Zm1 2h1v1H15Zm1 2h1v2h1V16H16Zm3 2h1V15h1v1H19Zm2-3h1V13H21Zm2-2H22V11h1ZM18 4H17V3h1Zm1 0h1V6h2V9h1V7H21V5H19ZM16 3H15V2h1Zm8 1h1V3H24Zm3 0h1V3H27Zm0 5h1V8H27Z" />
	<path fill="#44e" d="M5 18v-1h2v-6h1V9h1V8h4v1h1v2h1v2h1v2h1v1h1v1h1v-1h1v-1h1v-2h1v-2h1V9h-1V7h-1V6h-1V5h-1V4h-2V3h-2V2H8v2h1v1h1v2H8v1H7v1H5V8H4v10z" />
	<path fill="#66e" d="M4 14v-3h2v-1H5v2h1v1H5v1zm9-6v1h1v1h1v2h1v2h1v1h1v1h1v-4h-1V9h-1V7h-1V6h-1V5h-3v1h-1v1h-1v1zm-6 3h1v1H7zm0 5h1v1H7z" />
	<path fill="#ea8" d="M5 4v3h1v1h2V7h1V6H8V5H7V4zm13 17v1h1v1h2v1h1v2h-1v1h-2v1H9v-1H7v-1H5v-1H4v-1H3v-5h1v-1h1v-1h3v1h1v1H8v1h1v1h2v1h5v-1z"/>
	<path fill="#a64" d="M5 7h1v2h1V8H5zm5 0V6H8V4H7v1h2v2zM9 21H7v2h2v1H8v-4h1zm-4-4h2v1H4v1h1zm-1 3H3v3h1zm0 4h1v2h1v-1H4zm3 2h1v1H7m2 0h2v1H9zm9-4h3v1h1v2h-1v1h-4v1h2v-2h1v-2h-1v-2h-1z" />
	<path fill="#800" d="M6 20h2v1H7v1H6zm-3-1h1v1H3zm0 4h1v1H3zm1 2h1v2h4v1H7v-2H4zm15 2h3v-3h-1v-1h2v-1h1v2h-1v2h-2v2h-2zM5 3h2v1H5z" />
	<path fill="#000" d="M3 28v-1h1v-1h1v1h2v1z" />
	<path fill="#eee" d="M5 11h1v1H5zm4 8v-1H8v-2H7v-4h1v-2h1V9h3v1h1v1h1v2h1v2h1v2h1v1h3v-1h1v-2h1v-2h1v-1h2v7h-1v3h-3v-1h-5v1h-5v-1H9v-1H8v-1zm-4-1h3v1H5zm-1 1h1v1H4z" />
	<path fill="#000" d="M10 14v3h1v2h1v-1h1v-5h-2v-1h1v3h-1v-1zm9 9v-1h-1v-1h1v-3h1v1h1v1h-1v1h1v1h3v-1h-1v2zm2-7h1v-1h-1z" />
	<path fill="#aaa" d="M2 2v1h1V2zM1 27h1v2h1v-1H1zm26 2h1v-2h1v1h-2zm1-27h-1v1h1zM7 12h1v-1h1v-1h1V9h1v1h1v1h2v2h1v2h1v2h1v2h1v-1h-2v-2h-1v-2h-1v-2h-1v-2H8v3H7zm5 0h1v1h-1zm6 8h1v1h-1zm2 1h1v-2h1v-5h1v-1h1v1h1v3h-1v2h-1v1h-3z" />
	<path fill="#888" d="M22 13h1v1h-1zm2 0h1v1h-1zm-4 4h1v1h-1zm4 0h1v1h-1zm-14 1h1v1h-1zm8 0h1v1h-1zm3 0h1v1h-1zm2 1h1v1h-1zm-1 1h1v1h-1zM9 9h1v1H9zm2 0h1v1h-1zm12 3h1v1h-1z" />
	<path fill="#444" d="M24 12h1v1h-1zm-14 1h1v1h-1zm11 3h1v2h-1zm-11 1h1v1h-1zm14 1h1v1h-1zm-4 0h1v1h-1zm3 2h1v1h-1zm-2 1h2v1h-2z" />
</svg>
